public/logos/WB.svg

<?xml version="1.0" encoding="UTF-8"?>
<svg xmlns="http://www.w3.org/2000/svg" xmlns:xlink="http://www.w3.org/1999/xlink" width="176pt" height="59pt" viewBox="0 0 176 59" version="1.1">
<g id="surface1">
<rect x="0" y="0" width="176" height="59" style="fill:rgb(14.622498%,30.822754%,62.979126%);fill-opacity:1;stroke:none;"/>
<path style=" stroke:none;fill-rule:evenodd;fill:rgb(96.453857%,87.467957%,2.015686%);fill-opacity:1;" d="M 42.535156 6.039062 L 37.132812 14.753906 L 45.042969 8.535156 L 38.300781 16.28125 L 46.863281 11.691406 L 39.078125 18.121094 L 47.914062 15.359375 L 39.425781 20.203125 L 48.152344 19.386719 L 39.332031 22.429688 L 47.566406 23.59375 L 38.800781 24.703125 L 46.183594 27.800781 L 37.855469 26.925781 L 44.0625 31.820312 L 36.53125 29 L 41.296875 35.476562 L 34.898438 30.835938 L 38.007812 38.609375 L 33.015625 32.347656 L 34.335938 41.089844 L 30.972656 33.480469 L 30.445312 42.792969 L 28.855469 34.175781 L 26.507812 43.660156 L 26.761719 34.40625 L 22.6875 43.648438 L 24.777344 34.160156 L 19.160156 42.757812 L 22.988281 33.453125 L 16.074219 41.023438 L 21.476562 32.308594 L 13.566406 38.527344 L 20.308594 30.78125 L 11.746094 35.371094 L 19.53125 28.9375 L 10.695312 31.703125 L 19.183594 26.859375 L 10.457031 27.675781 L 19.277344 24.632812 L 11.042969 23.464844 L 19.808594 22.359375 L 12.425781 19.261719 L 20.757812 20.136719 L 14.546875 15.242188 L 22.078125 18.0625 L 17.3125 11.585938 L 23.714844 16.226562 L 20.601562 8.449219 L 25.59375 14.710938 L 24.273438 5.972656 L 27.636719 13.582031 L 28.164062 4.265625 L 29.753906 12.886719 L 32.105469 3.398438 L 31.847656 12.65625 L 35.921875 3.414062 L 33.835938 12.898438 L 39.453125 4.304688 L 35.621094 13.609375 L 42.535156 6.039062 "/>
<path style=" stroke:none;fill-rule:nonzero;fill:rgb(100%,100%,100%);fill-opacity:1;" d="M 34.164062 17.109375 C 31.441406 15.046875 27.046875 16.253906 24.367188 19.792969 C 21.6875 23.335938 21.722656 27.894531 24.445312 29.953125 C 27.167969 32.015625 31.566406 30.808594 34.242188 27.265625 C 36.921875 23.722656 36.886719 19.167969 34.164062 17.109375 Z M 23.976562 30.578125 C 20.988281 28.316406 20.949219 23.316406 23.890625 19.433594 C 26.828125 15.550781 31.648438 14.226562 34.632812 16.484375 C 37.621094 18.746094 37.660156 23.742188 34.722656 27.628906 C 31.78125 31.515625 26.964844 32.835938 23.976562 30.578125 "/>
<path style=" stroke:none;fill-rule:nonzero;fill:rgb(29.544067%,63.082886%,87.063599%);fill-opacity:1;" d="M 7.988281 23.53125 C 16.804688 -5.617188 40.917969 2.554688 40.917969 2.554688 C 40.917969 2.554688 14.46875 -8.539062 0 23.53125 L 7.988281 23.53125 "/>
<path style=" stroke:none;fill-rule:nonzero;fill:rgb(52.536011%,80.140686%,17.814636%);fill-opacity:1;" d="M 50.34375 23.53125 C 41.53125 52.679688 17.414062 44.507812 17.414062 44.507812 C 17.414062 44.507812 43.867188 55.601562 58.335938 23.53125 L 50.34375 23.53125 "/>
<path style=" stroke:none;fill-rule:nonzero;fill:rgb(100%,100%,100%);fill-opacity:1;" d="M 70.597656 14.917969 C 71.40625 14.917969 72.070312 14.824219 72.59375 14.636719 C 73.121094 14.449219 73.558594 14.160156 73.910156 13.769531 C 74.257812 13.375 74.527344 12.921875 74.714844 12.398438 C 74.902344 11.878906 74.996094 11.292969 74.996094 10.640625 C 74.996094 9.847656 74.796875 9.257812 74.398438 8.867188 C 73.996094 8.476562 73.367188 8.28125 72.503906 8.28125 C 71.886719 8.28125 71.46875 8.289062 71.257812 8.304688 L 69.828125 14.917969 Z M 74.175781 15.894531 C 74.667969 16.292969 75.023438 16.675781 75.246094 17.046875 C 75.46875 17.417969 75.660156 17.960938 75.816406 18.667969 L 76.167969 20.378906 C 76.300781 20.996094 76.421875 21.441406 76.542969 21.703125 C 76.660156 21.96875 76.820312 22.183594 77.019531 22.351562 C 77.21875 22.519531 77.492188 22.644531 77.84375 22.722656 L 77.671875 23.53125 L 73.308594 23.53125 C 73.039062 22.765625 72.804688 21.855469 72.601562 20.804688 L 72.210938 18.777344 C 72.097656 18.167969 71.960938 17.6875 71.808594 17.335938 C 71.652344 16.984375 71.457031 16.734375 71.21875 16.578125 C 70.984375 16.421875 70.667969 16.34375 70.269531 16.34375 L 69.511719 16.34375 L 68.632812 20.230469 C 68.574219 20.5 68.53125 20.730469 68.507812 20.929688 C 68.484375 21.125 68.472656 21.367188 68.472656 21.660156 C 68.472656 22.035156 68.566406 22.300781 68.757812 22.457031 C 68.949219 22.609375 69.25 22.699219 69.65625 22.722656 L 69.484375 23.53125 L 63.167969 23.53125 L 63.339844 22.722656 C 63.679688 22.625 63.945312 22.492188 64.128906 22.320312 C 64.308594 22.148438 64.46875 21.90625 64.597656 21.59375 C 64.726562 21.28125 64.859375 20.828125 64.988281 20.230469 L 67.214844 10.152344 C 67.320312 9.671875 67.371094 9.195312 67.371094 8.722656 C 67.371094 8.378906 67.292969 8.128906 67.132812 7.96875 C 66.972656 7.8125 66.714844 7.707031 66.355469 7.65625 L 66.527344 6.851562 L 72.625 6.851562 C 73.449219 6.851562 74.097656 6.875 74.574219 6.917969 C 75.050781 6.964844 75.507812 7.054688 75.945312 7.1875 C 76.378906 7.324219 76.753906 7.488281 77.066406 7.6875 C 77.382812 7.886719 77.652344 8.125 77.875 8.402344 C 78.097656 8.679688 78.269531 9.003906 78.386719 9.367188 C 78.507812 9.734375 78.566406 10.148438 78.566406 10.601562 C 78.566406 11.832031 78.203125 12.875 77.476562 13.730469 C 76.753906 14.585938 75.648438 15.269531 74.164062 15.785156 L 74.175781 15.894531 "/>
<path style=" stroke:none;fill-rule:nonzero;fill:rgb(100%,100%,100%);fill-opacity:1;" d="M 97.96875 11.410156 L 98.398438 12.214844 C 98.011719 13.316406 97.175781 14.917969 95.886719 17.023438 C 94.59375 19.128906 93.058594 21.359375 91.285156 23.714844 L 89.21875 23.714844 L 88.839844 20.097656 C 88.734375 19.121094 88.664062 18.382812 88.632812 17.886719 C 88.601562 17.390625 88.585938 16.992188 88.585938 16.699219 L 88.460938 16.699219 C 88.007812 17.652344 87.414062 18.726562 86.691406 19.925781 C 85.964844 21.125 85.125 22.386719 84.171875 23.714844 L 81.949219 23.714844 L 80.984375 14.316406 C 80.925781 13.746094 80.855469 13.324219 80.769531 13.050781 C 80.683594 12.78125 80.5625 12.578125 80.402344 12.449219 C 80.242188 12.316406 80.011719 12.238281 79.703125 12.214844 L 79.882812 11.410156 L 84.148438 11.410156 L 84.820312 20.28125 C 85.757812 18.824219 86.445312 17.664062 86.878906 16.808594 C 87.316406 15.957031 87.640625 15.171875 87.851562 14.457031 C 88.0625 13.746094 88.210938 12.996094 88.289062 12.214844 L 88.460938 11.410156 L 91.210938 11.410156 L 91.96875 20.292969 C 93.148438 18.507812 94.007812 17.058594 94.539062 15.941406 C 95.074219 14.828125 95.339844 13.90625 95.339844 13.179688 C 95.339844 12.871094 95.269531 12.636719 95.121094 12.476562 C 94.972656 12.320312 94.71875 12.230469 94.351562 12.214844 L 94.523438 11.410156 L 97.96875 11.410156 "/>
<path style=" stroke:none;fill-rule:nonzero;fill:rgb(100%,100%,100%);fill-opacity:1;" d="M 107.183594 15.929688 C 107.238281 15.667969 107.285156 15.378906 107.320312 15.054688 C 107.359375 14.734375 107.378906 14.421875 107.378906 14.121094 C 107.378906 13.585938 107.273438 13.175781 107.070312 12.898438 C 106.867188 12.621094 106.535156 12.484375 106.070312 12.484375 C 105.3125 12.484375 104.640625 12.867188 104.054688 13.628906 C 103.46875 14.390625 102.992188 15.414062 102.636719 16.699219 C 102.277344 17.988281 102.097656 19.140625 102.097656 20.15625 C 102.097656 20.753906 102.1875 21.195312 102.359375 21.488281 C 102.535156 21.785156 102.808594 21.929688 103.175781 21.929688 C 103.710938 21.929688 104.261719 21.667969 104.816406 21.140625 C 105.375 20.617188 105.824219 20 106.167969 19.289062 C 106.511719 18.582031 106.816406 17.613281 107.085938 16.382812 Z M 109.027344 12.09375 L 110.125 11.214844 L 111.496094 11.410156 L 109.613281 19.925781 C 109.515625 20.359375 109.445312 20.703125 109.398438 20.964844 C 109.355469 21.226562 109.332031 21.445312 109.332031 21.625 C 109.332031 21.992188 109.421875 22.257812 109.601562 22.417969 C 109.78125 22.582031 110.097656 22.683594 110.554688 22.722656 L 110.421875 23.53125 L 105.726562 23.53125 L 106.386719 21.027344 L 106.230469 20.976562 C 105.675781 21.695312 105.160156 22.25 104.683594 22.644531 C 104.207031 23.039062 103.738281 23.320312 103.277344 23.480469 C 102.816406 23.644531 102.285156 23.726562 101.683594 23.726562 C 101.113281 23.726562 100.613281 23.59375 100.179688 23.324219 C 99.746094 23.054688 99.40625 22.628906 99.152344 22.046875 C 98.902344 21.464844 98.777344 20.722656 98.777344 19.828125 C 98.777344 18.972656 98.875 18.109375 99.074219 17.238281 C 99.273438 16.367188 99.570312 15.554688 99.960938 14.800781 C 100.351562 14.046875 100.84375 13.402344 101.4375 12.863281 C 102.03125 12.324219 102.707031 11.917969 103.460938 11.636719 C 104.214844 11.355469 105.035156 11.214844 105.921875 11.214844 C 107.136719 11.214844 108.171875 11.507812 109.027344 12.09375 "/>
<path style=" stroke:none;fill-rule:nonzero;fill:rgb(100%,100%,100%);fill-opacity:1;" d="M 125.09375 23.53125 L 120.023438 23.53125 L 121.550781 16.882812 C 121.769531 15.9375 121.90625 15.285156 121.953125 14.929688 C 122.003906 14.570312 122.027344 14.289062 122.027344 14.085938 C 122.027344 13.71875 121.949219 13.445312 121.796875 13.265625 C 121.640625 13.085938 121.417969 12.996094 121.125 12.996094 C 120.863281 12.996094 120.578125 13.09375 120.269531 13.289062 C 119.960938 13.488281 119.613281 13.792969 119.230469 14.207031 C 118.847656 14.621094 118.539062 15.0625 118.3125 15.527344 C 118.085938 15.992188 117.902344 16.570312 117.765625 17.261719 L 116.417969 23.53125 L 112.910156 23.53125 L 114.832031 14.90625 C 114.871094 14.707031 114.925781 14.429688 114.996094 14.066406 C 115.0625 13.703125 115.101562 13.402344 115.101562 13.15625 C 115.101562 12.816406 115.003906 12.582031 114.8125 12.453125 C 114.621094 12.328125 114.320312 12.25 113.914062 12.214844 L 114.097656 11.410156 L 117.457031 11.273438 L 118.742188 11.273438 L 118.042969 13.914062 L 118.191406 13.964844 C 118.753906 13.269531 119.273438 12.726562 119.753906 12.332031 C 120.234375 11.9375 120.714844 11.652344 121.191406 11.476562 C 121.667969 11.300781 122.195312 11.214844 122.773438 11.214844 C 123.613281 11.214844 124.269531 11.449219 124.753906 11.917969 C 125.234375 12.386719 125.472656 13.03125 125.472656 13.851562 C 125.472656 14.382812 125.394531 15.015625 125.230469 15.746094 L 124.226562 20.269531 C 124.144531 20.644531 124.089844 20.933594 124.0625 21.136719 C 124.035156 21.339844 124.019531 21.515625 124.019531 21.660156 C 124.019531 22.027344 124.109375 22.285156 124.292969 22.429688 C 124.476562 22.578125 124.792969 22.675781 125.242188 22.722656 L 125.09375 23.53125 "/>
<path style=" stroke:none;fill-rule:nonzero;fill:rgb(100%,100%,100%);fill-opacity:1;" d="M 136.09375 15.929688 C 136.140625 15.6875 136.1875 15.402344 136.226562 15.082031 C 136.269531 14.757812 136.285156 14.445312 136.285156 14.132812 C 136.285156 13.589844 136.1875 13.175781 135.980469 12.898438 C 135.777344 12.621094 135.445312 12.484375 134.980469 12.484375 C 134.222656 12.484375 133.550781 12.867188 132.964844 13.628906 C 132.378906 14.390625 131.90625 15.414062 131.546875 16.699219 C 131.1875 17.988281 131.007812 19.140625 131.007812 20.15625 C 131.007812 20.753906 131.097656 21.195312 131.269531 21.488281 C 131.445312 21.785156 131.71875 21.929688 132.085938 21.929688 C 132.621094 21.929688 133.171875 21.667969 133.726562 21.140625 C 134.285156 20.617188 134.734375 20 135.078125 19.289062 C 135.421875 18.582031 135.726562 17.613281 135.992188 16.382812 Z M 137.339844 9.722656 C 137.386719 9.519531 137.445312 9.226562 137.511719 8.84375 C 137.574219 8.460938 137.605469 8.171875 137.605469 7.976562 C 137.605469 7.796875 137.589844 7.65625 137.554688 7.554688 C 137.515625 7.453125 137.460938 7.367188 137.386719 7.304688 C 137.3125 7.238281 137.214844 7.1875 137.09375 7.152344 C 136.972656 7.113281 136.730469 7.070312 136.371094 7.023438 L 136.566406 6.226562 L 140.222656 6.03125 L 141.601562 6.03125 L 138.523438 19.925781 C 138.433594 20.324219 138.363281 20.660156 138.316406 20.933594 C 138.265625 21.207031 138.242188 21.4375 138.242188 21.625 C 138.242188 21.992188 138.332031 22.257812 138.511719 22.417969 C 138.691406 22.582031 139.007812 22.683594 139.464844 22.722656 L 139.328125 23.53125 L 134.636719 23.53125 L 135.296875 21.027344 L 135.140625 20.976562 C 134.585938 21.695312 134.070312 22.25 133.59375 22.644531 C 133.117188 23.039062 132.648438 23.320312 132.1875 23.480469 C 131.726562 23.644531 131.195312 23.726562 130.59375 23.726562 C 130.023438 23.726562 129.523438 23.59375 129.089844 23.324219 C 128.65625 23.054688 128.316406 22.628906 128.0625 22.046875 C 127.8125 21.464844 127.6875 20.722656 127.6875 19.828125 C 127.6875 18.972656 127.785156 18.109375 127.984375 17.238281 C 128.183594 16.367188 128.476562 15.554688 128.863281 14.800781 C 129.25 14.046875 129.742188 13.402344 130.335938 12.863281 C 130.933594 12.324219 131.605469 11.917969 132.359375 11.636719 C 133.113281 11.355469 133.933594 11.214844 134.820312 11.214844 C 135.546875 11.214844 136.246094 11.339844 136.921875 11.59375 L 137.339844 9.722656 "/>
<path style=" stroke:none;fill-rule:nonzero;fill:rgb(96.453857%,87.467957%,2.015686%);fill-opacity:1;" d="M 146.195312 16.933594 L 150.179688 16.933594 L 150.132812 14 C 150.113281 12.957031 150.105469 12.09375 150.105469 11.410156 C 150.105469 10.886719 150.109375 10.355469 150.121094 9.808594 L 149.972656 9.808594 Z M 150.21875 18.363281 L 145.4375 18.363281 L 145.269531 18.667969 C 145.082031 18.992188 144.921875 19.289062 144.785156 19.554688 C 144.652344 19.820312 144.53125 20.085938 144.425781 20.359375 C 144.320312 20.632812 144.242188 20.878906 144.199219 21.09375 C 144.152344 21.308594 144.132812 21.515625 144.132812 21.710938 C 144.132812 22.296875 144.480469 22.636719 145.171875 22.722656 L 144.988281 23.53125 L 139.832031 23.53125 L 140.015625 22.722656 C 140.300781 22.660156 140.550781 22.550781 140.765625 22.394531 C 140.980469 22.238281 141.1875 22.03125 141.382812 21.765625 C 141.578125 21.5 141.855469 21.046875 142.214844 20.402344 L 149.800781 6.765625 L 153.320312 6.765625 L 153.847656 19.828125 C 153.863281 20.324219 153.890625 20.71875 153.933594 21.007812 C 153.972656 21.296875 154.023438 21.542969 154.089844 21.746094 C 154.15625 21.949219 154.234375 22.121094 154.328125 22.261719 C 154.421875 22.398438 154.542969 22.503906 154.6875 22.578125 C 154.835938 22.652344 155 22.699219 155.179688 22.722656 L 154.996094 23.53125 L 148.679688 23.53125 L 148.859375 22.722656 C 149.21875 22.699219 149.503906 22.609375 149.710938 22.449219 C 149.917969 22.289062 150.0625 22.074219 150.144531 21.800781 C 150.226562 21.527344 150.265625 21.148438 150.265625 20.660156 C 150.265625 20.308594 150.257812 19.941406 150.242188 19.558594 L 150.21875 18.363281 "/>
<path style=" stroke:none;fill-rule:nonzero;fill:rgb(96.453857%,87.467957%,2.015686%);fill-opacity:1;" d="M 163.976562 6.535156 L 163.339844 9.527344 L 160.175781 9.527344 L 160.847656 6.535156 Z M 161.152344 20.269531 C 161.0625 20.675781 161.007812 20.976562 160.980469 21.171875 C 160.957031 21.367188 160.945312 21.53125 160.945312 21.660156 C 160.945312 22.011719 161.035156 22.265625 161.222656 22.417969 C 161.402344 22.574219 161.71875 22.675781 162.167969 22.722656 L 162.03125 23.53125 L 156.949219 23.53125 L 158.855469 15.003906 C 158.960938 14.511719 159.035156 14.132812 159.074219 13.859375 C 159.117188 13.585938 159.136719 13.355469 159.136719 13.167969 C 159.136719 12.851562 159.0625 12.625 158.910156 12.492188 C 158.761719 12.355469 158.445312 12.265625 157.964844 12.214844 L 158.148438 11.410156 L 161.726562 11.273438 L 163.121094 11.273438 L 161.152344 20.269531 "/>
<path style=" stroke:none;fill-rule:nonzero;fill:rgb(96.453857%,87.467957%,2.015686%);fill-opacity:1;" d="M 175.277344 14.734375 L 173.09375 14.734375 C 173.09375 14.1875 173.03125 13.808594 172.914062 13.597656 C 172.796875 13.386719 172.59375 13.277344 172.308594 13.277344 C 172.179688 13.277344 172.042969 13.304688 171.898438 13.359375 C 171.757812 13.410156 171.59375 13.503906 171.410156 13.640625 C 171.226562 13.773438 171.007812 13.992188 170.753906 14.292969 C 170.496094 14.59375 170.28125 14.886719 170.109375 15.171875 C 169.9375 15.457031 169.796875 15.757812 169.683594 16.070312 C 169.566406 16.386719 169.460938 16.78125 169.363281 17.261719 L 168.019531 23.53125 L 164.515625 23.53125 L 166.433594 14.90625 C 166.609375 14.097656 166.699219 13.515625 166.699219 13.15625 C 166.699219 12.816406 166.605469 12.582031 166.414062 12.453125 C 166.222656 12.328125 165.921875 12.25 165.515625 12.214844 L 165.699219 11.410156 L 169.058594 11.273438 L 170.4375 11.273438 L 169.523438 14.109375 L 169.671875 14.160156 C 170.355469 13.191406 171.074219 12.457031 171.832031 11.960938 C 172.589844 11.460938 173.410156 11.214844 174.289062 11.214844 C 174.824219 11.214844 175.394531 11.292969 176 11.445312 L 175.277344 14.734375 "/>
</g>
</svg>

<svg xmlns="http://www.w3.org/2000/svg" width="176pt" height="59pt" viewBox="0 0 176 59"><path d="M0 0h176v59H0z" style="fill:#254fa1;fill-opacity:1;stroke:none"/><path d="m42.535 6.04-5.402 8.714 7.91-6.219-6.742 7.746 8.562-4.59-7.785 6.43 8.836-2.762-8.488 4.844 8.726-.816-8.82 3.043 8.234 1.164-8.765 1.11 7.383 3.097-8.329-.875 6.208 4.894L36.53 29l4.766 6.477-6.399-4.641 3.11 7.773-4.992-6.261 1.32 8.742-3.363-7.61-.528 9.313-1.59-8.617-2.347 9.484.254-9.254-4.075 9.242 2.09-9.488-5.617 8.598 3.828-9.305-6.914 7.57 5.403-8.714-7.91 6.218 6.742-7.746-8.563 4.59 7.785-6.434-8.836 2.766 8.489-4.844-8.727.817 8.82-3.043-8.234-1.168 8.766-1.106-7.383-3.097 8.332.875-6.211-4.895 7.531 2.82-4.765-6.476 6.402 4.64-3.113-7.777 4.992 6.262-1.32-8.738 3.363 7.609.527-9.316 1.59 8.62 2.351-9.488-.257 9.258 4.074-9.242-2.086 9.484 5.617-8.593-3.832 9.304z" style="stroke:none;fill-rule:evenodd;fill:#f6df05;fill-opacity:1"/><path d="M34.164 17.11c-2.723-2.063-7.117-.856-9.797 2.683-2.68 3.543-2.644 8.102.078 10.16 2.723 2.063 7.121.856 9.797-2.687 2.68-3.543 2.645-8.098-.078-10.157M23.977 30.577c-2.989-2.262-3.028-7.262-.086-11.144 2.937-3.883 7.757-5.207 10.742-2.95 2.988 2.262 3.027 7.258.09 11.145-2.942 3.887-7.758 5.207-10.746 2.95" style="stroke:none;fill-rule:nonzero;fill:#fff;fill-opacity:1"/><path d="M7.988 23.531c8.817-29.148 32.93-20.976 32.93-20.976S14.468-8.54 0 23.53z" style="stroke:none;fill-rule:nonzero;fill:#4ba1de;fill-opacity:1"/><path d="M50.344 23.531c-8.813 29.149-32.93 20.977-32.93 20.977S43.867 55.602 58.336 23.53z" style="stroke:none;fill-rule:nonzero;fill:#86cc2d;fill-opacity:1"/><path d="M70.598 14.918q1.211 0 1.996-.281a3.16 3.16 0 0 0 1.316-.867 4.2 4.2 0 0 0 .805-1.372q.28-.78.281-1.757 0-1.188-.598-1.774c-.402-.39-1.03-.586-1.894-.586q-.928 0-1.246.024l-1.43 6.613Zm3.578.977q.737.596 1.07 1.152c.223.371.414.914.57 1.621l.352 1.71c.133.618.254 1.063.375 1.325q.176.397.477.649.297.253.824.37l-.172.81h-4.363q-.404-1.15-.707-2.727l-.391-2.028c-.113-.609-.25-1.09-.402-1.441q-.234-.526-.59-.758-.352-.234-.95-.234h-.757l-.88 3.886c-.058.27-.1.5-.124.7a6 6 0 0 0-.035.73q-.001.562.285.797.288.229.898.266l-.172.808h-6.316l.172-.808q.511-.145.789-.403c.18-.172.34-.414.469-.726q.195-.468.39-1.364l2.227-10.078q.157-.72.156-1.43.001-.514-.238-.753-.239-.236-.778-.313l.172-.804h6.098q1.235 0 1.95.066.714.07 1.37.27c.434.136.809.3 1.121.5q.475.299.809.714.335.419.512.965.18.552.18 1.235 0 1.845-1.09 3.128-1.086 1.283-3.313 2.055zM97.969 11.41l.43.805q-.58 1.651-2.512 4.808-1.94 3.159-4.602 6.692H89.22l-.38-3.617a55 55 0 0 1-.206-2.211 20 20 0 0 1-.047-1.188h-.125c-.453.953-1.047 2.028-1.77 3.227a59 59 0 0 1-2.52 3.789H81.95l-.965-9.399q-.087-.855-.214-1.265-.128-.407-.368-.602c-.16-.133-.39-.21-.699-.234l.18-.805h4.265l.672 8.871q1.407-2.187 2.059-3.472.656-1.279.973-2.352c.21-.71.359-1.46.437-2.242l.172-.805h2.75l.758 8.883q1.772-2.676 2.57-4.352.801-1.67.8-2.761.002-.463-.218-.703c-.148-.157-.402-.247-.77-.262l.172-.805zM107.184 15.93c.054-.262.101-.551.136-.875q.06-.481.059-.934c0-.535-.106-.945-.309-1.223q-.303-.415-1-.414-1.137.001-2.015 1.145c-.586.762-1.063 1.785-1.418 3.07q-.54 1.935-.54 3.457c0 .598.09 1.04.262 1.332q.265.444.817.442c.535 0 1.086-.262 1.64-.79a6.2 6.2 0 0 0 1.352-1.85q.514-1.062.918-2.907Zm1.843-3.836 1.098-.88 1.371.196-1.883 8.516a25 25 0 0 0-.215 1.039q-.065.392-.066.66 0 .552.27.793.269.246.953.305l-.133.808h-4.695l.66-2.504-.157-.05q-.832 1.076-1.546 1.668c-.477.394-.946.675-1.407.835q-.69.247-1.593.247-.854.001-1.504-.403-.649-.405-1.028-1.277-.375-.875-.375-2.219 0-1.283.297-2.59.3-1.306.887-2.437a6.8 6.8 0 0 1 1.477-1.938 6.2 6.2 0 0 1 2.023-1.226 7 7 0 0 1 2.46-.422q1.823 0 3.106.879M125.094 23.531h-5.07l1.527-6.648q.33-1.419.402-1.953.074-.539.074-.844-.001-.55-.23-.82-.233-.27-.672-.27-.393 0-.855.293-.465.298-1.04.918a5.5 5.5 0 0 0-.918 1.32q-.34.697-.546 1.735l-1.348 6.27h-3.508l1.922-8.626c.04-.199.094-.476.164-.84.067-.363.106-.664.106-.91q-.001-.51-.29-.703c-.19-.125-.492-.203-.898-.238l.184-.805 3.359-.137h1.285l-.699 2.641.148.05q.843-1.04 1.563-1.632.72-.593 1.437-.855a4.5 4.5 0 0 1 1.582-.262c.84 0 1.497.234 1.98.703q.72.703.72 1.934c0 .53-.078 1.164-.243 1.894l-1.003 4.524q-.123.563-.165.867a4 4 0 0 0-.042.523q0 .552.273.77.275.222.95.293zM136.094 15.93c.047-.242.094-.528.133-.848.043-.324.058-.637.058-.95 0-.542-.097-.956-.305-1.234q-.303-.415-1-.414-1.137.001-2.015 1.145-.88 1.143-1.418 3.07-.54 1.935-.54 3.457.002.895.263 1.332.264.444.816.442c.535 0 1.086-.262 1.64-.79a6.2 6.2 0 0 0 1.352-1.85q.516-1.062.914-2.907Zm1.246-6.207q.071-.304.172-.88.093-.573.093-.866.001-.27-.05-.422a.6.6 0 0 0-.168-.25.74.74 0 0 0-.293-.153q-.183-.058-.723-.129l.195-.796 3.657-.196h1.379l-3.079 13.895q-.136.597-.207 1.008-.075.41-.074.691 0 .552.27.793.269.246.953.305l-.137.808h-4.691l.66-2.504-.156-.05q-.832 1.076-1.547 1.668c-.477.394-.946.675-1.406.835q-.692.247-1.594.247-.854.001-1.504-.403-.649-.405-1.028-1.277-.375-.875-.375-2.219 0-1.283.297-2.59.3-1.306.88-2.437a6.8 6.8 0 0 1 1.472-1.938 6.3 6.3 0 0 1 2.023-1.226 7 7 0 0 1 2.461-.422 5.9 5.9 0 0 1 2.102.379z" style="stroke:none;fill-rule:nonzero;fill:#fff;fill-opacity:1"/><path d="M146.195 16.934h3.985L150.133 14q-.029-1.564-.028-2.59-.001-.783.016-1.601h-.148Zm4.024 1.43h-4.781l-.168.304q-.28.487-.485.887a9 9 0 0 0-.36.804c-.105.274-.183.52-.226.735a3 3 0 0 0-.066.617q0 .881 1.039 1.012l-.184.808h-5.156l.184-.808q.428-.094.75-.328c.214-.157.422-.364.617-.63q.292-.396.832-1.363L149.8 6.766h3.52l.527 13.062q.022.745.086 1.18.058.434.156.738t.238.516a.97.97 0 0 0 .36.316q.222.11.492.145l-.184.808h-6.316l.18-.808q.54-.035.85-.274.311-.24.435-.648.121-.41.12-1.14 0-.528-.023-1.102zM163.977 6.535l-.637 2.992h-3.164l.672-2.992Zm-2.825 13.735c-.09.406-.144.707-.172.902a4 4 0 0 0-.035.488q-.002.529.278.758.27.234.945.305l-.137.808h-5.082l1.906-8.527q.16-.736.22-1.145.063-.41.062-.691 0-.475-.227-.676c-.148-.137-.465-.226-.945-.277l.183-.805 3.579-.137h1.394zM175.277 14.734h-2.183c0-.546-.063-.925-.18-1.136q-.176-.318-.605-.32a1.2 1.2 0 0 0-.41.081q-.212.076-.489.282-.275.2-.656.652-.387.45-.645.879a5 5 0 0 0-.425.898c-.118.317-.223.711-.32 1.192l-1.344 6.27h-3.504l1.918-8.626q.264-1.211.265-1.75 0-.51-.285-.703-.288-.186-.898-.238l.183-.805 3.36-.137h1.379l-.915 2.836.149.051q1.024-1.454 2.16-2.2a4.38 4.38 0 0 1 2.457-.745q.803.001 1.711.23z" style="stroke:none;fill-rule:nonzero;fill:#f6df05;fill-opacity:1"/></svg>
